apps/spreadsheeteditor/main/resources/img/toolbar/2.5x/big/btn-freeze-panes.svg

<svg width="28" height="28" viewBox="0 0 28 28" fill="none" xmlns="http://www.w3.org/2000/svg">
<g opacity="0.4">
<path d="M4 7H24V9H4V7Z" fill="black"/>
<path fill-rule="evenodd" clip-rule="evenodd" d="M4 10H9V13H16V10H17V13H24V14H17V17H18V18H17V21H16V18H9V21H4V10ZM9 17H16V14H9V17Z" fill="black"/>
</g>
<path fill-rule="evenodd" clip-rule="evenodd" d="M3 7C3 6.44772 3.44772 6 4 6H24C24.5523 6 25 6.44772 25 7V15H24V10H9V21H18V22H4C3.44772 22 3 21.5523 3 21V7ZM17 7H24V9H17V7ZM16 7H9V9H16V7ZM8 7H4V9H8V7ZM4 10V13H8V10H4ZM4 14V17H8V14H4ZM4 18V21H8V18H4ZM22 16H23V18.2929L24.6213 16.6716L25.3284 17.3787L23.7071 19H26V20H23.7071L25.3284 21.6213L24.6213 22.3284L23 20.7071V23H22V20.7071L20.3787 22.3284L19.6716 21.6213L21.2929 20H19V19H21.2929L19.6716 17.3787L20.3787 16.6716L22 18.2929V16Z" fill="black"/>
</svg>

<svg xmlns="http://www.w3.org/2000/svg" width="28" height="28" fill="none"><path fill="#000" d="M4 7h20v2H4V7Zm0 3h5v3h7v-3h1v3h7v1h-7v3h1v1h-1v3h-1v-3H9v3H4V10Zm5 7h7v-3H9v3Z" opacity=".4"/><path fill="#000" d="M3 7a1 1 0 0 1 1-1h20a1 1 0 0 1 1 1v8h-1v-5H9v11h9v1H4a1 1 0 0 1-1-1V7Zm14 0v2h7V7h-7Zm-1 0H9v2h7V7ZM8 7H4v2h4V7Zm-4 3v3h4v-3H4Zm0 4v3h4v-3H4Zm0 4v3h4v-3H4Z"/><path fill="#000" d="M22 16h1v2.293l1.621-1.621.707.707L23.708 19H26v1h-2.293l1.621 1.621-.707.707L23 20.708V23h-1v-2.293l-1.621 1.621-.707-.707L21.292 20H19v-1h2.293l-1.621-1.621.707-.707L22 18.292V16Z"/></svg>
